static/img/kroki/96b46462f8aa6ee3ca5ede062559a07e.svg

<?xml version="1.0" encoding="us-ascii" standalone="no"?><svg xmlns="http://www.w3.org/2000/svg" xmlns:xlink="http://www.w3.org/1999/xlink" contentStyleType="text/css" height="374px" preserveAspectRatio="none" style="width:164px;height:374px;" version="1.1" viewBox="0 0 164 374" width="164px" zoomAndPan="magnify"><defs/><g><!--class gcp_image--><g id="elem_gcp_image"><rect codeLine="23" fill="#3D176E" height="39.7891" id="gcp_image" rx="2.5" ry="2.5" style="stroke:#000D19;stroke-width:0.5;" width="131" x="16.5" y="328.58"/><ellipse cx="31.5" cy="348.4745" fill="#ADD1B2" rx="11" ry="11" style="stroke:#181818;stroke-width:1.0;"/><path d="M34.4688,354.1152 Q33.8906,354.412 33.25,354.5527 Q32.6094,354.7089 31.9063,354.7089 Q29.4063,354.7089 28.0781,353.0683 Q26.7656,351.412 26.7656,348.287 Q26.7656,345.162 28.0781,343.5058 Q29.4063,341.8495 31.9063,341.8495 Q32.6094,341.8495 33.25,342.0058 Q33.9063,342.162 34.4688,342.4589 L34.4688,345.1777 Q33.8438,344.5995 33.25,344.3339 Q32.6563,344.0527 32.0313,344.0527 Q30.6875,344.0527 30,345.1308 Q29.3125,346.1933 29.3125,348.287 Q29.3125,350.3808 30,351.4589 Q30.6875,352.5214 32.0313,352.5214 Q32.6563,352.5214 33.25,352.2558 Q33.8438,351.9745 34.4688,351.3964 L34.4688,354.1152 Z " fill="#000000"/><text fill="#D9B8FF" font-family="Helvetica" font-size="17" lengthAdjust="spacing" textLength="89" x="50.5" y="354.3598">gcp_image</text></g><!--class gcp_resource--><g id="elem_gcp_resource"><rect codeLine="26" fill="#3D176E" height="39.7891" id="gcp_resource" rx="2.5" ry="2.5" style="stroke:#000D19;stroke-width:0.5;" width="150" x="7" y="167.79"/><ellipse cx="22" cy="187.6845" fill="#ADD1B2" rx="11" ry="11" style="stroke:#181818;stroke-width:1.0;"/><path d="M24.9688,193.3252 Q24.3906,193.622 23.75,193.7627 Q23.1094,193.9189 22.4063,193.9189 Q19.9063,193.9189 18.5781,192.2783 Q17.2656,190.622 17.2656,187.497 Q17.2656,184.372 18.5781,182.7158 Q19.9063,181.0595 22.4063,181.0595 Q23.1094,181.0595 23.75,181.2158 Q24.4063,181.372 24.9688,181.6689 L24.9688,184.3877 Q24.3438,183.8095 23.75,183.5439 Q23.1563,183.2627 22.5313,183.2627 Q21.1875,183.2627 20.5,184.3408 Q19.8125,185.4033 19.8125,187.497 Q19.8125,189.5908 20.5,190.6689 Q21.1875,191.7314 22.5313,191.7314 Q23.1563,191.7314 23.75,191.4658 Q24.3438,191.1845 24.9688,190.6064 L24.9688,193.3252 Z " fill="#000000"/><text fill="#D9B8FF" font-family="Helvetica" font-size="17" lengthAdjust="spacing" textLength="108" x="41" y="193.5698">gcp_resource</text></g><!--class resource--><g id="elem_resource"><rect codeLine="29" fill="#3D176E" height="39.7891" id="resource" rx="2.5" ry="2.5" style="stroke:#000D19;stroke-width:0.5;" width="113" x="25.5" y="7"/><ellipse cx="40.5" cy="26.8945" fill="#ADD1B2" rx="11" ry="11" style="stroke:#181818;stroke-width:1.0;"/><path d="M43.4688,32.5352 Q42.8906,32.832 42.25,32.9727 Q41.6094,33.1289 40.9063,33.1289 Q38.4063,33.1289 37.0781,31.4883 Q35.7656,29.832 35.7656,26.707 Q35.7656,23.582 37.0781,21.9258 Q38.4063,20.2695 40.9063,20.2695 Q41.6094,20.2695 42.25,20.4258 Q42.9063,20.582 43.4688,20.8789 L43.4688,23.5977 Q42.8438,23.0195 42.25,22.7539 Q41.6563,22.4727 41.0313,22.4727 Q39.6875,22.4727 39,23.5508 Q38.3125,24.6133 38.3125,26.707 Q38.3125,28.8008 39,29.8789 Q39.6875,30.9414 41.0313,30.9414 Q41.6563,30.9414 42.25,30.6758 Q42.8438,30.3945 43.4688,29.8164 L43.4688,32.5352 Z " fill="#000000"/><text fill="#D9B8FF" font-family="Helvetica" font-size="17" lengthAdjust="spacing" textLength="71" x="59.5" y="32.7798">resource</text></g><!--reverse link gcp_resource to gcp_image--><g id="link_gcp_resource_gcp_image"><path codeLine="32" d="M82,225.84 C82,256.36 82,297.69 82,328.25 " fill="none" id="gcp_resource-backto-gcp_image" style="stroke:#FFAF37;stroke-width:2.0;"/><polygon fill="none" points="82,207.84,76,225.84,88,225.84,82,207.84" style="stroke:#FFAF37;stroke-width:2.0;"/></g><!--reverse link resource to gcp_resource--><g id="link_resource_gcp_resource"><path codeLine="33" d="M82,65.05 C82,95.57 82,136.9 82,167.46 " fill="none" id="resource-backto-gcp_resource" style="stroke:#FFAF37;stroke-width:2.0;"/><polygon fill="none" points="82,47.05,76,65.05,88,65.05,82,47.05" style="stroke:#FFAF37;stroke-width:2.0;"/></g><!--SRC=[XP1BJyCm48Jl_XMMUewKK44QYKiR2S6bGfGxSknrOYMsexL3LHx_7K8fE4aVrvbFCxDRAG4KTEjtL8Ck01rnjJ8jGwRf4j5kSzjOf3CfcPodO_FE6dyHM3CDz1wQL_2Aip7nN2bU6t2ENWNMYl6wHDiPiO_to8pxji3uWCeRvjpIUrH5vo4O8x9Y8UMO78VEvY99Rs22MHI0lqWSnoB9niZ5ghDt_n4RzGOq2P-sjXucCoSLFzJPbJqHZ9mSUl1FRdnaGYXJqkj0UzflGWCuq3SL4tRRqv8rBgnn7X2itxMGJww2R25aUXH-E0KJth-EbhnzKPgLGDy9-Gn416Sxv0Dzg0sesuyeYlxJo17Z894l]--></g></svg>

<svg xmlns="http://www.w3.org/2000/svg" width="164" height="374" viewBox="0 0 164 374"><rect width="131" height="39.789" x="16.5" y="328.58" fill="#3D176E" rx="2.5" ry="2.5" style="stroke:#000d19;stroke-width:.5"/><circle cx="31.5" cy="348.474" r="11" fill="#ADD1B2" style="stroke:#181818;stroke-width:1"/><path d="M34.469 354.115q-.578.297-1.219.438-.64.156-1.344.156-2.5 0-3.828-1.64-1.312-1.657-1.312-4.782t1.312-4.781q1.328-1.656 3.828-1.656.703 0 1.344.156.656.156 1.219.453v2.719q-.625-.579-1.219-.844-.594-.281-1.219-.281-1.343 0-2.031 1.078-.687 1.062-.687 3.156t.687 3.172q.688 1.062 2.031 1.062.625 0 1.219-.265.594-.281 1.219-.86z"/><text x="50.5" y="354.36" fill="#D9B8FF" font-family="Helvetica" font-size="17" textLength="89">gcp_image</text><rect width="150" height="39.789" x="7" y="167.79" fill="#3D176E" rx="2.5" ry="2.5" style="stroke:#000d19;stroke-width:.5"/><circle cx="22" cy="187.685" r="11" fill="#ADD1B2" style="stroke:#181818;stroke-width:1"/><path d="M24.969 193.325q-.578.297-1.219.438-.64.156-1.344.156-2.5 0-3.828-1.64-1.312-1.657-1.312-4.782t1.312-4.781q1.328-1.656 3.828-1.656.703 0 1.344.156.656.156 1.219.453v2.719q-.625-.578-1.219-.844-.594-.281-1.219-.281-1.343 0-2.031 1.078-.687 1.062-.687 3.156t.687 3.172q.688 1.062 2.031 1.062.625 0 1.219-.265.594-.281 1.219-.86z"/><text x="41" y="193.57" fill="#D9B8FF" font-family="Helvetica" font-size="17" textLength="108">gcp_resource</text><rect width="113" height="39.789" x="25.5" y="7" fill="#3D176E" rx="2.5" ry="2.5" style="stroke:#000d19;stroke-width:.5"/><circle cx="40.5" cy="26.895" r="11" fill="#ADD1B2" style="stroke:#181818;stroke-width:1"/><path d="M43.469 32.535q-.578.297-1.219.438-.64.156-1.344.156-2.5 0-3.828-1.64-1.312-1.657-1.312-4.782t1.312-4.781q1.328-1.656 3.828-1.656.703 0 1.344.156.656.156 1.219.453v2.719q-.625-.578-1.219-.844-.594-.281-1.219-.281-1.343 0-2.031 1.078-.687 1.062-.687 3.156T39 29.879q.688 1.062 2.031 1.062.625 0 1.219-.265.594-.281 1.219-.86z"/><text x="59.5" y="32.78" fill="#D9B8FF" font-family="Helvetica" font-size="17" textLength="71">resource</text><path fill="none" d="M82 225.84v102.41m0-120.41-6 18h12zm0-142.79v102.41m0-120.41-6 18h12z" style="stroke:#ffaf37;stroke-width:2"/></svg>
